X:166
T:John Dwyer's
Z: id:dc-reel-153
M:C
L:1/8
K:G Major
ge|dBB2 GEDE|GBB2 dBGB|A2AB AGED|EGAB c2ge|!
dBB2 GEDE|GBB2 dBGA|B2BA BcdB|AcBA G2:|!
ga|bgg2 bgg2|aff2 aff2|bgg2 aged|eaa2 eaa2|!
bgg2 agef|g3e dBGA|B2BA BcdB|AcBA G2:|!

